public/assets/img/tg-logo.svg

<svg fill="none" height="20" viewBox="0 0 20 20" width="20" xmlns="http://www.w3.org/2000/svg"><path d="m10.0228 0h-.04558c-5.51027 0-9.97722 4.46696-9.97722 9.97723v.04557c0 5.5102 4.46695 9.9772 9.97722 9.9772h.04558c5.5102 0 9.9772-4.467 9.9772-9.9772v-.04557c0-5.51027-4.467-9.97723-9.9772-9.97723z" fill="#ff5391"/><path d="m3.78842 9.6583c.02803-.01401.05607-.02733.08339-.03994.47508-.22002.95646-.42602 1.43714-.63203.02592 0 .06935-.03013.09388-.03994.03713-.01611.07428-.03153.11142-.04764.07147-.03084.14294-.06096.21371-.0918.14294-.06096.28518-.12192.42812-.18288l.85555-.36646c.57036-.24385 1.14144-.48839 1.71181-.73223.57037-.24385 1.14143-.48839 1.71176-.73223.5704-.24385 1.1415-.48839 1.7118-.73223.5704-.24384 1.1415-.48838 1.7119-.73223.1268-.05465.2641-.13593.4001-.15976.1142-.02032.2256-.05956.3405-.08128.2179-.04134.4582-.05815.667.03224.0722.03153.1388.07567.1941.13103.2649.26206.2278.69228.1717 1.06085-.3903 2.56875-.7806 5.13823-1.1716 7.70693-.0532.3525-.1261.7393-.4043.9621-.2354.1885-.5703.2095-.8611.1296-.2908-.0806-.5473-.2494-.7988-.4155-1.0433-.6909-2.0874-1.3818-3.13072-2.0727-.24804-.1639-.52412-.3783-.52131-.6761.0014-.1794.1086-.3392.2179-.4814.90671-1.1828 2.21493-1.99559 3.18813-3.12371.1374-.15906.2453-.44634.0568-.53814-.1121-.05465-.241.01962-.3433.09039-1.2865.89339-2.57229 1.78748-3.85877 2.68086-.41972.2915-.85976.5914-1.36566.6629-.45265.0644-.9081-.0617-1.34604-.1906-.36716-.1079-.73364-.2186-1.0987-.3329-.1941-.0602-.3945-.1254-.54445-.262s-.23612-.3665-.14573-.54866c.05676-.11421.16677-.18638.28238-.24524z" fill="#fefffc"/></svg>

<svg width="20" height="20" viewBox="0 0 20 20" fill="none" xmlns="http://www.w3.org/2000/svg">
<path d="M10.0228 0H9.97722C4.46695 0 0 4.46696 0 9.97723V10.0228C0 15.533 4.46695 20 9.97722 20H10.0228C15.533 20 20 15.533 20 10.0228V9.97723C20 4.46696 15.533 0 10.0228 0Z" fill="#FF5391"/>
<path d="M3.78842 9.6583C3.81645 9.64429 3.84449 9.63097 3.87181 9.61836C4.34689 9.39834 4.82827 9.19234 5.30895 8.98633C5.33487 8.98633 5.3783 8.9562 5.40283 8.94639C5.43996 8.93028 5.47711 8.91486 5.51425 8.89875C5.58572 8.86791 5.65719 8.83779 5.72796 8.80695C5.8709 8.74599 6.01314 8.68503 6.15608 8.62407L7.01163 8.25761C7.58199 8.01376 8.15307 7.76922 8.72344 7.52538C9.29381 7.28153 9.86487 7.03699 10.4352 6.79315C11.0056 6.5493 11.5767 6.30476 12.147 6.06092C12.7174 5.81708 13.2885 5.57254 13.8589 5.32869C13.9857 5.27404 14.123 5.19276 14.259 5.16893C14.3732 5.14861 14.4846 5.10937 14.5995 5.08765C14.8174 5.04631 15.0577 5.0295 15.2665 5.11989C15.3387 5.15142 15.4053 5.19556 15.4606 5.25092C15.7255 5.51298 15.6884 5.9432 15.6323 6.31177C15.242 8.88052 14.8517 11.45 14.4607 14.0187C14.4075 14.3712 14.3346 14.758 14.0564 14.9808C13.821 15.1693 13.4861 15.1903 13.1953 15.1104C12.9045 15.0298 12.648 14.861 12.3965 14.6949C11.3532 14.004 10.3091 13.3131 9.26578 12.6222C9.01774 12.4583 8.74166 12.2439 8.74447 11.9461C8.74587 11.7667 8.85307 11.6069 8.96237 11.4647C9.86908 10.2819 11.1773 9.46911 12.1505 8.34099C12.2879 8.18193 12.3958 7.89465 12.2073 7.80285C12.0952 7.7482 11.9663 7.82247 11.864 7.89324C10.5775 8.78663 9.29171 9.68072 8.00523 10.5741C7.58551 10.8656 7.14547 11.1655 6.63957 11.237C6.18692 11.3014 5.73147 11.1753 5.29353 11.0464C4.92637 10.9385 4.55989 10.8278 4.19483 10.7135C4.00073 10.6533 3.80033 10.5881 3.65038 10.4515C3.50043 10.3149 3.41426 10.085 3.50465 9.90284C3.56141 9.78863 3.67142 9.71646 3.78703 9.6576L3.78842 9.6583Z" fill="#FEFFFC"/>
</svg>
